src/assets/fleet-icons/calendar.svg

<svg width="20" height="20" viewBox="0 0 20 20" fill="none" xmlns="http://www.w3.org/2000/svg">
<path d="M6 2.75V6.25M14 2.75V6.25M5.75 8.75H14.25M4.75 17.25H15.25C16.3546 17.25 17.25 16.3546 17.25 15.25V6.75C17.25 5.64543 16.3546 4.75 15.25 4.75H4.75C3.64543 4.75 2.75 5.64543 2.75 6.75V15.25C2.75 16.3546 3.64543 17.25 4.75 17.25Z" stroke="currentColor" stroke-linecap="round" stroke-linejoin="round"/>
</svg>

<svg width="20" height="20" fill="none" xmlns="http://www.w3.org/2000/svg">
    <path
        d="M6 2.75v3.5m8-3.5v3.5m-8.25 2.5h8.5m-9.5 8.5h10.5a2 2 0 0 0 2-2v-8.5a2 2 0 0 0-2-2H4.75a2 2 0 0 0-2 2v8.5a2 2 0 0 0 2 2Z"
        stroke="currentColor" stroke-linecap="round" stroke-linejoin="round" />
</svg>
